X: 36806
T: Shetland Museum, The
R: reel
M: 4/4
K: Gmajor
G2ED G2ED|G2AB c2BA|G2ED G2ED|G2ED D4|
G2ED G2ED|G2AB c2Bc|d2BG A2GE|G2ED D4:|
d2Bd e2fg|d2BG A2GE|d2Bd e2fg|a2ge g4|
a2ge g2ed|e2dB d3d|d2BG A2GE|G2ED D4:|

